packages/symbols/svgs/solid/signal-stream-solid.svg

<svg width="16" height="16" viewBox="0 0 16 16" xmlns="http://www.w3.org/2000/svg"><g clip-path="url(#a)"><path fill-rule="evenodd" clip-rule="evenodd" d="M12.2 2.3c.4-.4 1-.4 1.4 0C15.1 3.8 16 5.8 16 8s-.9 4.2-2.4 5.7c-.2.2-.4.3-.7.3-.2 0-.5-.1-.7-.3-.4-.4-.4-1 0-1.4C13.4 11.1 14 9.6 14 8c0-1.6-.6-3.1-1.8-4.3-.4-.4-.4-1 0-1.4ZM2 8c0-1.6.6-3.1 1.8-4.3.4-.4.4-1 0-1.4-.4-.4-1-.4-1.4 0C.9 3.8 0 5.8 0 8s.9 4.2 2.4 5.7c.2.2.5.3.7.3.3 0 .5-.1.7-.3.4-.4.4-1 0-1.4C2.6 11.1 2 9.6 2 8Zm6 3a3 3 0 1 0 0-6 3 3 0 0 0 0 6Z"/></g><defs><clipPath id="a"><path fill="#fff" d="M0 0h16v16H0z"/></clipPath></defs></svg>

<svg width="16" height="16" viewBox="0 0 16 16" fill="none" xmlns="http://www.w3.org/2000/svg">
<g clip-path="url(#clip0_787_2875)">
<path fill-rule="evenodd" clip-rule="evenodd" d="M12.2 2.3C12.6 1.9 13.2 1.9 13.6 2.3C15.1 3.8 16 5.8 16 8C16 10.2 15.1 12.2 13.6 13.7C13.4 13.9 13.2 14 12.9 14C12.7 14 12.4 13.9 12.2 13.7C11.8 13.3 11.8 12.7 12.2 12.3C13.4 11.1 14 9.6 14 8C14 6.4 13.4 4.9 12.2 3.7C11.8 3.3 11.8 2.7 12.2 2.3ZM2 8C2 6.4 2.6 4.9 3.8 3.7C4.2 3.3 4.2 2.7 3.8 2.3C3.4 1.9 2.8 1.9 2.4 2.3C0.9 3.8 -6.64414e-07 5.8 -1.04907e-06 8C-1.43373e-06 10.2 0.9 12.2 2.4 13.7C2.6 13.9 2.9 14 3.1 14C3.4 14 3.6 13.9 3.8 13.7C4.2 13.3 4.2 12.7 3.8 12.3C2.6 11.1 2 9.6 2 8ZM8 11C9.65685 11 11 9.65686 11 8C11 6.34315 9.65685 5 8 5C6.34315 5 5 6.34315 5 8C5 9.65686 6.34315 11 8 11Z" fill="black"/>
</g>
<defs>
<clipPath id="clip0_787_2875">
<rect width="16" height="16" fill="white"/>
</clipPath>
</defs>
</svg>
